X: 6934
T: Cherry Blossom, The
R: polka
M: 2/4
K: Dmajor
V:1
e2e2f4|e2e2f4|e2f2g2f2|e2 fe c4|
V:2
e2e2 fbgf|e2e2 fbgf|eBfB gBfB|eBfe cABc|
V:1
B2G2B2c2|B2 BG F4|e2f2g2f2|e2 fe c4||
V:2
BEGE BcBG|BcBG FAGF|zBfB gBfB|eBfe cABc||
V:1
B2G2B2c2|B2 BG F4|e2e2f4|e2e2f4|
V:2
BeGe Bece|BeBG FBBB|eBeg fbbb|eBeg fbbb|
V:1
B2c2 fe c2|B6 z2||
V:2
g2 e2 fe e2|G6 z2||

